X:160
T:Holly Bush, The
R:jig
D:Matt Molloy & Sean Keane: Contentment is Wealth
Z:id:hn-jig-160
M:6/8
K:G
BAG G2D|~G3 ABc|BAG edc|B/c/dB cBA|BAG GDG|GDG ABc|BAG edB|def g3:|
gdd gdd|gdd dcB|Acc Acc|Acc cBA|~B3 cdc|BAG Fdc|BAG edB|def g3:|

